packages/axiom-materials/src/icon_svgs/duplicate.svg

<svg height="16" viewBox="0 0 16 16" width="16" xmlns="http://www.w3.org/2000/svg"><path d="m2 5v9h1 1 7v-2h-7v-7zm3 6h9v-9h-9zm2-5h2v-2h1v2h2v1h-2v2h-1v-2h-2z" fill-rule="evenodd"/></svg>

<?xml version="1.0" encoding="UTF-8"?>
<svg width="16px" height="16px" viewBox="0 0 16 16" version="1.1" xmlns="http://www.w3.org/2000/svg" xmlns:xlink="http://www.w3.org/1999/xlink">
    <!-- Generator: sketchtool 43.2 (39069) - http://www.bohemiancoding.com/sketch -->
    <title>duplicate</title>
    <desc>Created with sketchtool.</desc>
    <defs></defs>
    <g id="Page-1" stroke="none" stroke-width="1" fill="none" fill-rule="evenodd">
        <g id="duplicate" fill="#000000">
            <path d="M2,5 L2,14 L3,14 L4,14 L11,14 L11,12 L4,12 L4,5 L2,5 Z M5,11 L14,11 L14,2 L5,2 L5,11 Z M7,6 L9,6 L9,4 L10,4 L10,6 L12,6 L12,7 L10,7 L10,9 L9,9 L9,7 L7,7 L7,6 Z" id="Mask"></path>
        </g>
    </g>
</svg>
